material/.icons/material/cricket.svg

<svg xmlns="http://www.w3.org/2000/svg" viewBox="0 0 24 24"><path d="M14.34 17.77l1.41-1.41L20 20.58 18.56 22l-4.22-4.23M18.5 2A3.5 3.5 0 0122 5.5 3.5 3.5 0 0118.5 9 3.5 3.5 0 0115 5.5 3.5 3.5 0 0118.5 2M2.24 7.11l2.83-2.83a1.02 1.02 0 011.43 0l8.47 8.49c.39.39.39 1.02 0 1.41L12.14 17a.99.99 0 01-1.42 0L2.24 8.53c-.39-.4-.39-1.03 0-1.42z"/></svg>

<?xml version="1.0" encoding="UTF-8"?><!DOCTYPE svg PUBLIC "-//W3C//DTD SVG 1.1//EN" "http://www.w3.org/Graphics/SVG/1.1/DTD/svg11.dtd"><svg xmlns="http://www.w3.org/2000/svg" xmlns:xlink="http://www.w3.org/1999/xlink" version="1.1" id="mdi-cricket" width="24" height="24" viewBox="0 0 24 24"><path d="M14.34,17.77L15.75,16.36L20,20.58L18.56,22L14.34,17.77M18.5,2A3.5,3.5 0 0,1 22,5.5A3.5,3.5 0 0,1 18.5,9A3.5,3.5 0 0,1 15,5.5A3.5,3.5 0 0,1 18.5,2M2.24,7.11L5.07,4.28C5.46,3.89 6.09,3.89 6.5,4.28L14.97,12.77C15.36,13.16 15.36,13.79 14.97,14.18L12.14,17C11.75,17.4 11.12,17.4 10.72,17L2.24,8.53C1.85,8.13 1.85,7.5 2.24,7.11Z" /></svg>
